**kern	**silbe	**harmony	**chordsym	**phrase	**timestamp	**leadinstrument
*ICvox	*	*M4/4	*M4/4	*	*	*
*	*	*A-:	*A-:	*	*	*
=1	=1	=1	=1	=1	=1	=1
*A-:	*	*	*	*	*	*
*M4/4	*	*	*	*	*	*
*clefC3	*	*	*	*	*	*
1r	.	1r;	r	.	0	r
=2	=2	=2	=2	=2	=2	=2
*	*	*>A_intro	*>A_intro	*>A_intro	*>A_intro	*>A_intro
1r	.	1A-M	A-:5 (A- E-)	newline	3.947	strings
=3	=3	=3	=3	=3	=3	=3
1r	.	1A-M	A-:5 (A- E-)	.	.	strings
=4	=4	=4	=4	=4	=4	=4
1r	.	1A-M	A-:5 (A- E-)	.	.	strings
=5	=5	=5	=5	=5	=5	=5
1r	.	1A-M	A-:5 (A- E-)	.	.	strings
=6	=6	=6	=6	=6	=6	=6
1r	.	1A-M	A-:5 (A- E-)	newline	18.551	piano
=7	=7	=7	=7	=7	=7	=7
1r	.	1A-M	A-:5 (A- E-)	.	.	piano
=8	=8	=8	=8	=8	=8	=8
1r	.	1A-m	A-:min (C- A- E-)	newline	25.868	piano
=9	=9	=9	=9	=9	=9	=9
1r	.	1D-M	D-:sus2 (D- E- A-)	.	.	piano
=10	=10	=10	=10	=10	=10	=10
1r	.	2.F-M	F-:1(3,7) (F- A- E-)	.	.	piano
.	.	4A-M	A-:5 (E- A-)	.	.	piano
=11	=11	=11	=11	=11	=11	=11
1r	.	1A-M	A-:5 (A- E-)	.	.	piano
=12	=12	=12	=12	=12	=12	=12
1r	.	1A-m	A-:min (C- A- E-)	newline	40.303	piano
=13	=13	=13	=13	=13	=13	=13
1r	.	2.D-M	D-:sus2 (D- E- A-)	.	.	piano
.	.	4A-M	A-:5 (G- A- E-)	.	.	piano
=14	=14	=14	=14	=14	=14	=14
1r	.	1F-M	F-:1(3,7) (F- A- E-)	.	.	piano
=15	=15	=15	=15	=15	=15	=15
1r	.	1A-M	A-:5 (G- A- E-)	.	.	piano
=16	=16	=16	=16	=16	=16	=16
1r	.	1B-mm	B-:min7 (B- D- F A-)	newline	55.742	synthesizer
=17	=17	=17	=17	=17	=17	=17
1r	.	1E-MM	E-:maj7 (E- G B- D)	.	.	synthesizer
=18	=18	=18	=18	=18	=18	=18
1r	.	1B-mm	B-:min7 (B- D- F A-)	.	.	synthesizer
=19	=19	=19	=19	=19	=19	=19
1r	.	1G-M	G-:maj (F- G- B- D-)	.	.	synthesizer
=20	=20	=20	=20	=20	=20	=20
1r	.	1E-mm	E-:min7 (E- G- B- D-)	newline	69.974	synthesizer
=21	=21	=21	=21	=21	=21	=21
1r	.	1BMm	B:7(11) (B D# F# A E)	.	.	synthesizer
=22	=22	=22	=22	=22	=22	=22
1r	.	1EMM	E:maj7 (E G# B D#)	.	.	synthesizer
=23	=23	=23	=23	=23	=23	=23
*C:	*	*	*	*	*	*
1r	.	1EMM	E:maj7 (E G# B D#)	.	.	synthesizer
=24	=24	=24	=24	=24	=24	=24
1r	.	1GMm	G:7 (G B D F)	.	.	synthesizer
=25	=25	=25	=25	=25	=25	=25
1r	.	1r;	r	.	.	r
=26	=26	=26	=26	=26	=26	=26
*	*	*>B_trans	*>B_trans	*>B_trans	*>B_trans	*>B_trans
*	*	*c:	*c:	*c:	*c:	*c:
4e	Sun-	1CM	C:maj (C E G)	newline	89.997	guitar
2.g	-rise,	.	.	.	.	.
=27	=27	=27	=27	=27	=27	=27
4r	_	1CM	C:maj (C E G)	.	.	guitar
8g#q	_	.	.	.	.	.
4a	shine	.	.	.	.	.
8d#q	_	.	.	.	.	.
8e	down	.	.	.	.	.
8c	a	.	.	.	.	.
8d	lit-	.	.	.	.	.
8G	-tle	.	.	.	.	.
=28	=28	=28	=28	=28	=28	=28
*	*	*>C_verse	*>C_verse	*>C_verse	*>C_verse	*>C_verse
4A	love	1CM	C:maj (C E G)	newline	93.775	voice
8c	on	.	.	.	.	.
8A	the	.	.	.	.	.
4c	world	.	.	.	.	.
8c	to-	.	.	.	.	.
8A	-day	.	.	.	.	.
=29	=29	=29	=29	=29	=29	=29
4.G	_	1Emm	E:min7 (E G B D)	.	.	voice
8r	.	.	.	.	.	.
8r	.	.	.	.	.	.
8G	M-	.	.	.	.	.
8d	-make	.	.	.	.	.
8c	a	.	.	.	.	.
=30	=30	=30	=30	=30	=30	=30
8d#q	_	.	.	.	.	.
4e	mor-	1FM	F:maj (F A C)	.	.	voice
2.g	-ning,	.	.	.	.	.
=31	=31	=31	=31	=31	=31	=31
4r	_	2Dmm	D:min7 (D F A C)	.	.	voice
8g#q	_	.	.	.	.	.
4a	so	.	.	.	.	.
8d#q	_	.	.	.	.	.
8e	sweet	2GMm	G:7 (G B D F)	.	.	voice
8c	that	.	.	.	.	.
8d	it-	.	.	.	.	.
8G	-'ll	.	.	.	.	.
=32	=32	=32	=32	=32	=32	=32
8A	have	1CM	C:maj (C E G)	newline	101.342	voice
8c	to	.	.	.	.	.
8c	chase	.	.	.	.	.
8A	my	.	.	.	.	.
8Bq	_	.	.	.	.	.
4c	blues	.	.	.	.	.
8c	a-	.	.	.	.	.
[8d	-way	.	.	.	.	.
=33	=33	=33	=33	=33	=33	=33
4d]	_	1Emm	E:min7 (E G B D)	.	.	voice
4r	.	.	.	.	.	.
4r	.	.	.	.	.	.
8dq	_	.	.	.	.	.
8e-	Oh,	.	.	.	.	.
8d	the	.	.	.	.	.
=34	=34	=34	=34	=34	=34	=34
8d	moon	1FM	F:maj (F A C)	.	.	voice
8c	_	.	.	.	.	.
8c	and	.	.	.	.	.
8d#q	_	.	.	.	.	.
[8e	stars	.	.	.	.	.
8e]	_	.	.	.	.	.
8d	have	.	.	.	.	.
16e	_	.	.	.	.	.
16d	_	.	.	.	.	.
8c	_	.	.	.	.	.
=35	=35	=35	=35	=35	=35	=35
4c	gone,	2Bdm	B:hdim7 (B D F A)	.	.	voice
4r	_	.	.	.	.	.
8r	.	2EMm	E:7 (E G# B D)	.	.	voice
8c	and	.	.	.	.	.
8e	I	.	.	.	.	.
8d	can	.	.	.	.	.
=36	=36	=36	=36	=36	=36	=36
4c	see	1Am	A:min (A C E)	newline	108.907	voice
8c	the	.	.	.	.	.
[8f	light	.	.	.	.	.
8f]	_	.	.	.	.	.
4a	of	.	.	.	.	.
[8cc	dawn!	.	.	.	.	.
=37	=37	=37	=37	=37	=37	=37
2cc]	_	2Gm	G:min (G B- D)	.	.	voice
8r	_	2CMm	C:7 (C E G B-)	.	.	voice
8c	L-	.	.	.	.	.
8c	-like	.	.	.	.	.
8c	a	.	.	.	.	.
=38	=38	=38	=38	=38	=38	=38
8e	gol-	1FMM	F:maj7 (F A C E)	.	.	voice
4g	-den	.	.	.	.	.
8g	smile,	.	.	.	.	.
8a	_	.	.	.	.	.
8r	_	.	.	.	.	.
8A	bright-	.	.	.	.	.
8A	-'ning	.	.	.	.	.
=39	=39	=39	=39	=39	=39	=39
8dq	_	.	.	.	.	.
4e	up	1DMm	D:7 (D F# A C)	.	.	voice
8e	the	.	.	.	.	.
[8a-	brand	.	.	.	.	.
8a-]	_	.	.	.	.	.
4B	new	.	.	.	.	.
[8c	day	.	.	.	.	.
=40	=40	=40	=40	=40	=40	=40
4c]	_	2CM	C:maj (G C E)	newline	116.376	voice
4r	.	.	.	.	.	.
2r	.	2AMm	A:7 (A C# E G)	.	.	voice
=41	=41	=41	=41	=41	=41	=41
1r	.	2Ddm	D:hdim7 (D F A- C)	.	.	voice
.	.	2GMm	G:7(b9) (G B D F A-)	.	.	voice
=42	=42	=42	=42	=42	=42	=42
*	*	*>B_trans	*>B_trans	*>B_trans	*>B_trans	*>B_trans
4e	Sun-	1CM	C:maj (C E G)	newline	120.224	piano
2.g	-rise,	.	.	.	.	.
=43	=43	=43	=43	=43	=43	=43
4r	_	2GM	G:maj (C G B D)	.	.	piano
8g#q	_	.	.	.	.	.
4a	come	.	.	.	.	.
8d#q	_	.	.	.	.	.
8e	wrap	2FM	F:maj (C F A)	.	.	piano
8c	me	.	.	.	.	.
8d	in	.	.	.	.	.
8G	the	.	.	.	.	.
=44	=44	=44	=44	=44	=44	=44
*	*	*>C_verse	*>C_verse	*>C_verse	*>C_verse	*>C_verse
4A	warmth	1CM	C:maj (C E G)	newline	123.914	voice
8c	of	.	.	.	.	.
8A	your	.	.	.	.	.
4c	crim-	.	.	.	.	.
8c	-son	.	.	.	.	.
8A	sky	.	.	.	.	.
=45	=45	=45	=45	=45	=45	=45
4.G	_	1Emm	E:min7 (E G B D)	.	.	voice
8r	.	.	.	.	.	.
8r	.	.	.	.	.	.
8G	I	.	.	.	.	.
8d	spent	.	.	.	.	.
8c	a	.	.	.	.	.
=46	=46	=46	=46	=46	=46	=46
8d#q	_	.	.	.	.	.
4e	long	1FM	F:maj (F A C)	.	.	voice
[4g	time,	.	.	.	.	.
8.g]	_	.	.	.	.	.
16f	_	.	.	.	.	.
4e	_	.	.	.	.	.
=47	=47	=47	=47	=47	=47	=47
4r	_	2Dmm	D:min7 (D F A C)	.	.	voice
8g#q	_	.	.	.	.	.
8a	be-	.	.	.	.	.
8d#q	_	.	.	.	.	.
[8e	-lie	.	.	.	.	.
16e]	_	2GMm	G:7 (G B D F)	.	.	voice
16d	_	.	.	.	.	.
8c	ving	.	.	.	.	.
8d	in	.	.	.	.	.
8G	a	.	.	.	.	.
=48	=48	=48	=48	=48	=48	=48
8A	dream	1CM	C:maj (C E G)	newline	131.494	voice
8c	_	.	.	.	.	.
8c	that	.	.	.	.	.
8A	had	.	.	.	.	.
8Bq	_	.	.	.	.	.
4c	passed	.	.	.	.	.
8c	me	.	.	.	.	.
[8d	by	.	.	.	.	.
=49	=49	=49	=49	=49	=49	=49
4.d]	_	1Emm	E:min7 (E G B D)	.	.	voice
8r	.	.	.	.	.	.
4r	.	.	.	.	.	.
8e	But	.	.	.	.	.
8d	the	.	.	.	.	.
=50	=50	=50	=50	=50	=50	=50
8d	moon	1FM	F:maj (F A C)	.	.	voice
8c	_	.	.	.	.	.
8c	and	.	.	.	.	.
8d#q	_	.	.	.	.	.
[8e	stars	.	.	.	.	.
8e]	_	.	.	.	.	.
8d	have	.	.	.	.	.
16e	_	.	.	.	.	.
16d	_	.	.	.	.	.
8c	_	.	.	.	.	.
=51	=51	=51	=51	=51	=51	=51
4c	gone,	2Bdm	B:hdim7 (B D F A)	.	.	voice
4r	_	.	.	.	.	.
8r	.	2EMm	E:7 (E G# B D)	.	.	voice
8c	and	.	.	.	.	.
8e	I	.	.	.	.	.
8d	can	.	.	.	.	.
=52	=52	=52	=52	=52	=52	=52
4c	see	1Am	A:min (A C E)	newline	139.006	voice
8c	the	.	.	.	.	.
[8f	light	.	.	.	.	.
8f]	_	.	.	.	.	.
4a	of	.	.	.	.	.
[8cc	dawn!	.	.	.	.	.
=53	=53	=53	=53	=53	=53	=53
2cc]	_	2Gm	G:min (G B- D)	.	.	voice
8r	_	2CMm	C:7 (C E G B-)	.	.	voice
8c	L-	.	.	.	.	.
8c	-like	.	.	.	.	.
8c	a	.	.	.	.	.
=54	=54	=54	=54	=54	=54	=54
8e	gol-	1FMM	F:maj7 (F A C E)	.	.	voice
4g	-den	.	.	.	.	.
8g	smile,	.	.	.	.	.
8a	_	.	.	.	.	.
8r	_	.	.	.	.	.
8A	bright-	.	.	.	.	.
8A	-'ning	.	.	.	.	.
=55	=55	=55	=55	=55	=55	=55
8dq	_	.	.	.	.	.
4e	up	1DMm	D:7 (D F# A C)	.	.	voice
8e	the	.	.	.	.	.
[8a-	mor	.	.	.	.	.
8a-]	_	.	.	.	.	.
4B	ning	.	.	.	.	.
[8c	sky	.	.	.	.	.
=56	=56	=56	=56	=56	=56	=56
4c]	_	2CM	C:maj (G C E)	newline	146.469	voice
4r	.	.	.	.	.	.
2r	.	2AMm	A:7 (A C# E G)	.	.	voice
=57	=57	=57	=57	=57	=57	=57
*A-:	*	*	*	*	*	*
1r	.	2Ddm	D:hdim7 (D F A- C)	.	.	voice
.	.	2GMm	G:7(b9) (G B D F A-)	.	.	voice
=58	=58	=58	=58	=58	=58	=58
*	*	*>B2_trans	*>B2_trans	*>B2_trans	*>B2_trans	*>B2_trans
4r	.	1CM	C:maj (C E G)	newline	150.245	piano
8d-	From	.	.	.	.	.
8c	my	.	.	.	.	.
8d-	bed	.	.	.	.	.
8f	I	.	.	.	.	.
8b-q	_	.	.	.	.	.
8cc	can	.	.	.	.	.
[8b-	hear	.	.	.	.	.
=59	=59	=59	=59	=59	=59	=59
8b-]	_	1A-M	A-:maj (A- C E-)	.	.	piano
8fq	_	.	.	.	.	.
4g	the	.	.	.	.	.
[8f	world	.	.	.	.	.
8f]	_	.	.	.	.	.
8g	out-	.	.	.	.	.
4B-	-side,	.	.	.	.	.
=60	=60	=60	=60	=60	=60	=60
*	*	*>D_bridge	*>D_bridge	*>D_bridge	*>D_bridge	*>D_bridge
4r	_	1B-m	B-:min (B- D- F)	newline	153.945	voice
8d-	I	.	.	.	.	.
8c	get	.	.	.	.	.
8d-	up,	.	.	.	.	.
8f	throw	.	.	.	.	.
8b-q	_	.	.	.	.	.
8cc	my	.	.	.	.	.
[8b-	win	.	.	.	.	.
=61	=61	=61	=61	=61	=61	=61
8b-]	_	1E-MM	E-:maj7 (E- G B- D)	.	.	voice
8fq	_	.	.	.	.	.
4g	dow	.	.	.	.	.
[8f	o	.	.	.	.	.
8f]	_	.	.	.	.	.
8g	pen	.	.	.	.	.
4e-	wide,	.	.	.	.	.
=62	=62	=62	=62	=62	=62	=62
4r	.	1B-mm	B-:min7 (B- D- F A-)	.	.	voice
8e-	take	.	.	.	.	.
8d	a	.	.	.	.	.
8e-	breath	.	.	.	.	.
8f	of	.	.	.	.	.
4g	that	.	.	.	.	.
=63	=63	=63	=63	=63	=63	=63
4.a-	fresh	1E-M	E-:maj (D- E- G B-)	.	.	voice
8c	_	.	.	.	.	.
2c	air,	.	.	.	.	.
=64	=64	=64	=64	=64	=64	=64
4r	_	1Cm	C:min (C E- G)	newline	161.662	voice
8d-	take	.	.	.	.	.
8e-	a	.	.	.	.	.
8f	breath	.	.	.	.	.
8g	of	.	.	.	.	.
4a-	that	.	.	.	.	.
=65	=65	=65	=65	=65	=65	=65
*C:	*	*	*	*	*	*
4.a-	fresh	2Fm	F:min (F A- C)	.	.	voice
8d	_	.	.	.	.	.
2d	air,	2Fm	F:min (E- F A- C)	.	.	voice
=66	=66	=66	=66	=66	=66	=66
[2.b	fresh	2D-M	D-:maj (D- F A-)	.	.	voice
.	.	2D-M	D-:maj (C- D- F A-)	.	.	voice
4b]	_	.	.	.	.	.
=67	=67	=67	=67	=67	=67	=67
1g	air!	2G-M	G-:maj (B- G- D-)	.	.	voice
.	.	2AM	A:maj (A C# E)	.	.	voice
=68	=68	=68	=68	=68	=68	=68
1r	.	2GM	G:maj (G B D)	newline	169.441	voice
.	.	2GM	G:maj (F G B D)	.	.	voice
=69	=69	=69	=69	=69	=69	=69
*M3/4	*	*	*	*	*	*
2.r	.	2GM	G:maj (E G B D)	.	.	voice
.	.	2GM	G:maj (D G B)	.	.	voice
=70	=70	=70	=70	=70	=70	=70
*M4/4	*	*	*	*	*	*
4e	Sun-	.	.	.	.	.
2.g	-rise,	1r;	r	.	.	r
=71	=71	=71	=71	=71	=71	=71
4r	_	.	.	.	.	.
=68	=68	=68	=68	=68	=68	=68
*	*	*M3/4	*M3/4	*M3/4	*M3/4	*M3/4
8g#q	_	.	.	.	.	.
4a	shine	2.N	N	.	.	r
8d#q	_	.	.	.	.	.
8e	down	.	.	.	.	.
8c	a	.	.	.	.	.
8d	lit-	.	.	.	.	.
8G	-tle	.	.	.	.	.
=72	=72	=72	=72	=72	=72	=72
*	*	*>C_verse	*>C_verse	*>C_verse	*>C_verse	*>C_verse
*	*	*M4/4	*M4/4	*M4/4	*M4/4	*M4/4
4A	love	1CM	C:maj (C E G)	newline	176.634	voice
8c	on	.	.	.	.	.
8A	the	.	.	.	.	.
4c	world	.	.	.	.	.
8c	to-	.	.	.	.	.
8A	-day	.	.	.	.	.
=73	=73	=73	=73	=73	=73	=73
4.G	_	1Emm	E:min7 (E G B D)	.	.	voice
8r	.	.	.	.	.	.
8r	.	.	.	.	.	.
8G	M-	.	.	.	.	.
8d	-make	.	.	.	.	.
8c	a	.	.	.	.	.
=74	=74	=74	=74	=74	=74	=74
8d#q	_	.	.	.	.	.
4e	mor-	1FM	F:maj (F A C)	.	.	voice
2.g	-ning,	.	.	.	.	.
=75	=75	=75	=75	=75	=75	=75
4r	_	2Dmm	D:min7 (D F A C)	.	.	voice
8g#q	_	.	.	.	.	.
4a	so	.	.	.	.	.
8d#q	_	.	.	.	.	.
8e	sweet	2GMm	G:7 (G B D F)	.	.	voice
8c	that	.	.	.	.	.
8d	it-	.	.	.	.	.
8G	-'ll	.	.	.	.	.
=76	=76	=76	=76	=76	=76	=76
8A	have	1CM	C:maj (C E G)	newline	184.297	voice
8c	to	.	.	.	.	.
8c	chase	.	.	.	.	.
8A	my	.	.	.	.	.
8Bq	_	.	.	.	.	.
4c	blues	.	.	.	.	.
8c	a-	.	.	.	.	.
[8d	-way	.	.	.	.	.
=77	=77	=77	=77	=77	=77	=77
4d]	_	1Emm	E:min7 (E G B D)	.	.	voice
4r	.	.	.	.	.	.
4r	.	.	.	.	.	.
8dq	_	.	.	.	.	.
8e-	Oh,	.	.	.	.	.
8d	the	.	.	.	.	.
=78	=78	=78	=78	=78	=78	=78
8d	moon	1FM	F:maj (F A C)	.	.	voice
8c	_	.	.	.	.	.
8c	and	.	.	.	.	.
8d#q	_	.	.	.	.	.
[8e	stars	.	.	.	.	.
8e]	_	.	.	.	.	.
8d	have	.	.	.	.	.
16e	_	.	.	.	.	.
16d	_	.	.	.	.	.
8c	_	.	.	.	.	.
=79	=79	=79	=79	=79	=79	=79
4c	gone,	2Bdm	B:hdim7 (B D F A)	.	.	voice
4r	_	.	.	.	.	.
8r	.	2EMm	E:7 (E G# B D)	.	.	voice
8c	and	.	.	.	.	.
8e	I	.	.	.	.	.
8d	can	.	.	.	.	.
=80	=80	=80	=80	=80	=80	=80
4c	see	1Am	A:min (A C E)	newline	191.859	voice
8c	the	.	.	.	.	.
[8f	light	.	.	.	.	.
8f]	_	.	.	.	.	.
4a	of	.	.	.	.	.
[8cc	dawn!	.	.	.	.	.
=81	=81	=81	=81	=81	=81	=81
2cc]	_	2Gm	G:min (G B- D)	.	.	voice
8r	_	2CMm	C:7 (C E G B-)	.	.	voice
8c	L-	.	.	.	.	.
8c	-like	.	.	.	.	.
8c	a	.	.	.	.	.
=82	=82	=82	=82	=82	=82	=82
8e	gol-	1FMM	F:maj7 (F A C E)	.	.	voice
4g	-den	.	.	.	.	.
8g	smile,	.	.	.	.	.
8a	_	.	.	.	.	.
8r	_	.	.	.	.	.
8A	bright-	.	.	.	.	.
8A	-'ning	.	.	.	.	.
=83	=83	=83	=83	=83	=83	=83
8dq	_	.	.	.	.	.
4e	up	1DMm	D:7 (D F# A C)	.	.	voice
8e	the	.	.	.	.	.
[8a-	brand	.	.	.	.	.
8a-]	_	.	.	.	.	.
4B	new	.	.	.	.	.
[8c	day	.	.	.	.	.
=84	=84	=84	=84	=84	=84	=84
2c]	_	2CM	C:maj (G C E)	newline	199.36	voice
2r	.	2AMm	A:7 (A C# E G)	.	.	voice
=85	=85	=85	=85	=85	=85	=85
4r	.	2Ddm	D:hdim7 (D F A- C)	.	.	voice
8r	.	.	.	.	.	.
8cq	_	.	.	.	.	.
[8d	Brand	.	.	.	.	.
8d]	_	2GMm	G:7(b9) (G B D F A-)	.	.	voice
4.e-	new	.	.	.	.	.
=86	=86	=86	=86	=86	=86	=86
*	*	*>B2_trans	*>B2_trans	*>B2_trans	*>B2_trans	*>B2_trans
[1a-	day!	2A-M	A-:maj (A- C E-)	newline	203.12	guitar
.	.	2A-M	A-:maj (G- A- C E-)	.	.	guitar
=87	=87	=87	=87	=87	=87	=87
2.a-]	_	2A-M	A-:maj (F A- C E-)	.	.	guitar
.	.	2A-M	A-:maj (E- A- C)	.	.	guitar
4r	_	.	.	.	.	.
=88	=88	=88	=88	=88	=88	=88
1r	.	2A-M	A-:maj (A- C E-)	.	.	guitar
.	.	2A-M	A-:maj (G- A- C E-)	.	.	guitar
=89	=89	=89	=89	=89	=89	=89
1r	.	2A-M	A-:maj (F A- C E-)	.	.	guitar
.	.	2A-M	A-:maj (E- A- C)	.	.	guitar
=90	=90	=90	=90	=90	=90	=90
*	*	*>D_outro	*>D_outro	*>D_outro	*>D_outro	*>D_outro
1r	.	1CM	C:maj (C E G)	newline	210.63	piano
=91	=91	=91	=91	=91	=91	=91
1r	.	1E-M	E-:maj (E- G B-)	.	.	piano
=92	=92	=92	=92	=92	=92	=92
1r	.	1B-M	B-:maj (B- D F)	.	.	piano
=93	=93	=93	=93	=93	=93	=93
1r	.	1FM	F:maj (F A C)	.	.	piano
=94	=94	=94	=94	=94	=94	=94
1r	.	1CM	C:maj (C E G)	newline	217.709	piano
=95	=95	=95	=95	=95	=95	=95
1r	.	1E-M	E-:maj (E- G B-)	.	.	piano
=96	=96	=96	=96	=96	=96	=96
1r	.	1B-M	B-:maj (B- D F)	.	.	piano
=97	=97	=97	=97	=97	=97	=97
1r	.	1FM	F:maj (F A C)	.	.	piano
=98	=98	=98	=98	=98	=98	=98
1r	.	1CM	C:maj (C E G)	newline	224.723	guitar
=99	=99	=99	=99	=99	=99	=99
1r	.	1E-M	E-:maj (E- G B-)	.	.	guitar
=100	=100	=100	=100	=100	=100	=100
1r	.	1B-M	B-:maj (B- D F)	.	.	guitar
=101	=101	=101	=101	=101	=101	=101
1r	.	1FM	F:maj (F A C)	.	.	guitar
=102	=102	=102	=102	=102	=102	=102
1r	.	1CM	C:maj (C E G)	newline	231.765	guitar
=103	=103	=103	=103	=103	=103	=103
1r	.	1E-M	E-:maj (E- G B-)	.	.	guitar
=104	=104	=104	=104	=104	=104	=104
1r	.	1B-M	B-:maj (B- D F)	.	.	guitar
=105	=105	=105	=105	=105	=105	=105
1r	.	1FM	F:maj (F A C)	.	.	guitar
=106	=106	=106	=106	=106	=106	=106
1r	.	1CM	C:maj (C E G)	newline	238.749	guitar
=107	=107	=107	=107	=107	=107	=107
1r	.	1E-M	E-:maj (E- G B-)	.	.	guitar
=108	=108	=108	=108	=108	=108	=108
1r	.	1B-M	B-:maj (B- D F)	.	.	guitar
=109	=109	=109	=109	=109	=109	=109
1r	.	1FM	F:maj (F A C)	.	.	guitar
=110	=110	=110	=110	=110	=110	=110
1r	.	1CM	C:maj (C E G)	newline	245.691	guitar
=111	=111	=111	=111	=111	=111	=111
1r	.	1E-M	E-:maj (E- G B-)	.	.	guitar
=112	=112	=112	=112	=112	=112	=112
1r	.	1B-M	B-:maj (B- D F)	.	.	guitar
=113	=113	=113	=113	=113	=113	=113
1r	.	1FM	F:maj (F A C)	.	.	guitar
=114	=114	=114	=114	=114	=114	=114
1r	.	1CM	C:maj (C E G)	newline	252.66	trumpet
=115	=115	=115	=115	=115	=115	=115
1r	.	1E-M	E-:maj (E- G B-)	.	.	trumpet
=116	=116	=116	=116	=116	=116	=116
1r	.	1B-M	B-:maj (B- D F)	.	.	trumpet
=117	=117	=117	=117	=117	=117	=117
1r	.	1FM	F:maj (F A C)	.	.	trumpet
=118	=118	=118	=118	=118	=118	=118
1r	.	1CM	C:maj (C E G)	newline	259.764	guitar
=119	=119	=119	=119	=119	=119	=119
1r	.	1E-M	E-:maj (E- G B-)	.	.	guitar
=120	=120	=120	=120	=120	=120	=120
1r	.	1B-M	B-:maj (B- D F)	.	.	guitar
=121	=121	=121	=121	=121	=121	=121
1r	.	1FM	F:maj (F A C)	.	.	guitar
=122	=122	=122	=122	=122	=122	=122
1r	.	1N	N	newline	266.624	guitar
=123	=123	=123	=123	=123	=123	=123
1r	.	1E-M	E-:maj (E- G B-)	.	.	guitar
=124	=124	=124	=124	=124	=124	=124
1r	.	1B-M	B-:maj (B- D F)	.	.	guitar
=125	=125	=125	=125	=125	=125	=125
1r	.	1FM	F:maj (F A C)	.	.	guitar
=126	=126	=126	=126	=126	=126	=126
1r	.	1CM	C:maj (C E G)	newline	273.384	guitar
=127	=127	=127	=127	=127	=127	=127
1r	.	1E-M	E-:maj (E- G B-)	.	.	guitar
=128	=128	=128	=128	=128	=128	=128
1r	.	1B-M	B-:maj (B- D F)	.	.	guitar
=129	=129	=129	=129	=129	=129	=129
1r	.	1FM	F:maj (F A C)	.	.	guitar
=130	=130	=130	=130	=130	=130	=130
1r	.	1CM	C:maj (C E G)	newline	280.166	guitar
=131	=131	=131	=131	=131	=131	=131
1r	.	1E-M	E-:maj (E- G B-)	.	.	guitar
=132	=132	=132	=132	=132	=132	=132
1r	.	1B-M	B-:maj (B- D F)	.	.	guitar
=133	=133	=133	=133	=133	=133	=133
1r	.	1FM	F:maj (F A C)	.	.	guitar
=134	=134	=134	=134	=134	=134	=134
1r	.	1CM	C:maj (C E G)	newline	286.898	guitar
=135	=135	=135	=135	=135	=135	=135
1r	.	1E-M	E-:maj (E- G B-)	.	.	guitar
=136	=136	=136	=136	=136	=136	=136
1r	.	1B-M	B-:maj (B- D F)	.	.	guitar
=137	=137	=137	=137	=137	=137	=137
1r	.	1FM	F:maj (F A C)	.	.	guitar
=138	=138	=138	=138	=138	=138	=138
*	*	*>_fadeout	*>_fadeout	*>_fadeout	*>_fadeout	*>_fadeout
1r	.	1CM	C:maj (C E G)	newline	293.724	guitar
=139	=139	=139	=139	=139	=139	=139
1r	.	1E-M	E-:maj (E- G B-)	.	.	guitar
=140	=140	=140	=140	=140	=140	=140
1r	.	1B-M	B-:maj (B- D F)	.	.	guitar
=141	=141	=141	=141	=141	=141	=141
1r	.	1FM	F:maj (F A C)	.	.	guitar
=142	=142	=142	=142	=142	=142	=142
1r	.	1CM	C:maj (C E G)	newline	300.48	guitar
=143	=143	=143	=143	=143	=143	=143
1r	.	1E-M	E-:maj (E- G B-)	.	.	guitar
=144	=144	=144	=144	=144	=144	=144
1r	.	1B-M	B-:maj (B- D F)	.	.	guitar
=145	=145	=145	=145	=145	=145	=145
1r	.	1FM	F:maj (F A C)	.	.	guitar
=146	=146	=146	=146	=146	=146	=146
1r	.	1CM	C:maj (C E G)	newline	307.194	guitar
=147	=147	=147	=147	=147	=147	=147
1r	.	1E-M	E-:maj (E- G B-)	.	.	guitar
=148	=148	=148	=148	=148	=148	=148
1r	.	1B-M	B-:maj (B- D F)	.	.	guitar
=149	=149	=149	=149	=149	=149	=149
1r	.	1FM	F:maj (F A C)	.	.	guitar
=150	=150	=150	=150	=150	=150	=150
1r	.	1CM	C:maj (C E G)	newline	314.034	guitar
=151	=151	=151	=151	=151	=151	=151
1r	.	1E-M	E-:maj (E- G B-)	.	.	guitar
=152	=152	=152	=152	=152	=152	=152
1r	.	1B-M	B-:maj (B- D F)	.	.	guitar
*-	*-	*	*
=150	=150	=150	=150	=150
1FM	F:maj (F A C)	.	.	guitar
1r;	r	.	319.623	r
1r;	r	.	321.149	r
*-	*-	*-	*-	*-
!!!BillboardChartDate: 1976/08/28
!!!BillboardPeak: 34
!!!BillboardWeeksOnChart: 10
!!!COC: Eric Carmen
!!!ENC: Nathaniel Condit-Schultz
!!!EST: Awating manual error checking and editing.
!!!OTL: Sunrise
!!!RDF**chordsym: original McGill chord annotation + (implied pitch class set, with bass pitch in first position)
!!!RDF**harmony: **recip + pitch class of root + harmonic quality
!!!RDF**leadinstrument: original McGill primary instrumentation annotation
!!!RDF**phrase: newline = linebreak in original McGill transcription
!!!RDF**timestamp: McGill audio timestamp in seconds
!!!RDT: 2017/01/12/
!!!SampleActualRank: 66
!!!SampleID#: 0655
!!!SampleTargetRank: 67
